X:2494
T:Cancioneiro de Casto Sampedro: N\'umero 440
T:O pasacorredoiras do choqueiro
O:Galicia (Spain)
B:Cancioneiro de Casto Sampedro
N:http://www.multimania.com/galicia/terraes.htm
Z:formatado por Xurxo-Adrian Ente
Z:Covertido de Midi a abc por Antonio-Nil
M: 4/4
L: 1/8
Q:1/4=120
K:C % 0 sharps
z3G c/2B/2A/2G/2 F/2E/2D/2C/2|EF/2E/2 D3/2z/2 E/2F/2E/2C/2 E/2F/2E/2B,/2|DE/2D/2 CG c/2B/2A/2G/2 F/2E/2D/2C/2|EF/2E/2 D3/2z/2 E/2F/2E/2C/2 E/2F/2E/2B,/2|
C2- C/2z/2G c/2B/2A/2G/2 F/2E/2D/2C/2|EF/2E/2 D3/2z/2 E/2F/2E/2C/2 E/2F/2E/2B,/2|DE/2D/2 CG c/2B/2A/2G/2 F/2E/2D/2C/2|EF/2E/2 D3/2z/2 E/2F/2E/2C/2 E/2F/2E/2B,/2|
C2- C/2z/2E/2F/2 GE/2F/2 GA/2B/2|cA/2B/2 GA/2B<cA/2 FF/2A/2|G/2A/2G/2E/2 CE/2F/2 GE/2F/2 GA/2B/2|cA/2B/2 GA/2B/2 cB/2A/2 G/2E/2F/2D/2|
C2- C/2z/2E/2F/2 GE/2F/2 GA/2B/2|cA/2B/2 GA/2B<cA/2 FF/2A/2|G/2A/2G/2E/2 CE/2F/2 GE/2F/2 GA/2B/2|cA/2B/2 GA/2B/2 cB/2A/2 G/2E/2F/2D/2|
C3


